X:3
T: Amelia's Waltz
C: Bob McQuillen 1981
R: waltz
N: "Now a tune for Deanna's sweet daughter; if you haven't met her, you really oughtter."
M: 3/4
L: 1/8
K: D
A,2 || "D"D3 E D2 | D2 F3 E | "D"D2 F2 "G"B2 | "D"A4 A2 |
"G"B3 G B2 | "D"A2 F2 E2 | "Bm"D2 B,3 B, | "G"B,4 "A7"A,2 |
"D"D3 E D2 | D2 F3 E | "D"D2 F2 "G"B2 | "D"A4 A2 |
"G"B3 c d2 | "Em"d2 e2 f2 | "A7"e3 c B2 |1 "A"A4 A,2:|2"A"A4a2||
|:"D"f2 a3 f | "D"a2 f2 d2 | "A"e3 c B2 | A3 c fe |
"Bm"d3 B d2 | f2 e2 d2 | "F#m"c3 A F2 | F4 A2 |
 "G"G2 B3 G | "D"F2 A2 d2 | "A7"e3c A2 | "D"d4 f2 |
"G"g3 f e2 | "D"a2 f2 "Bm"d2 | "G"d2 e3"A7"c |1 "D"d4 a2 :|2"D"d4|]
